X:874
T:The kid on the mountain
R:Slip Jig
O:Ireland
S:My arrangement from various sources
Z:Transcription, arrangement, chords:Mike Long
M:9/8
L:1/8
K:G
"Em"E2E FEF G2F|E2B BcA BGE|\
E2E FEF G2A|"G"BAG "D"FAG FED:|
|:"G"BGB "D"AFD "G"G2D|"G"GAB dge "D"dBG|\
"G"BGB "D"AFD "G"G2G/A/|"G"BAG "D"FAG FED:|
|:"Em"gfg eBe e2f|"Em"gfg efg "D"afd|\
"Em"gfg eBe e2g/a/|"G"bag "D"fag fed:|
"Em"eBB e2f "(G)"g2f|"Em"eBB efg "D"afd|\
"Em"eBB e2f "(G)"g2g/a/|"G"bag "D"fag fed||
"Em"eBB e2f "(G)"g2f|"Em"eBB efg "D"afd|\
"G"gfg "D"afd "G"g2g/a/|"G"bag "D"fag fed|]
|:"C"edB "D"dBA "G"G2D|"G"GAB dge "D"dBG|\
"C"edB "D"dBA "G"G2G/A/|"G"BAG "D"FAG FED:|
